COLOR/status 16/16/audio-volume-muted.svg

<svg height="16" viewBox="0 0 4.2333333 4.2333333" width="16" xmlns="http://www.w3.org/2000/svg"><g fill="#924d8b" stroke-width=".264583" transform="matrix(.37962359 0 0 .37962359 -.301326 -108.21894)"><path d="m11.324192 285.30359-10.3194878 10.31949.37309.37468 2.5711388-2.57035 2.4012653 2.51478v-4.91605l1.8352812-1.83607c.3707085.43024.5850365.974.5850365 1.54554 0 .63188-.250844 1.23755-.6985501 1.68446l-.2802141.28022.5612209.56122.281008-.28022a3.1752268 3.1752268 0 0 0 .9303417-2.24568c0-.78189-.2992654-1.52649-.8176208-2.10676l1.1287928-1.12879a4.7580773 4.7580773 0 0 1 1.2764396 3.23555 4.7620464 4.7620464 0 0 1 -1.3955106 3.36812l-.281008.28021.5612206.56122.281008-.2802a5.5566468 5.5566468 0 0 0 1.627304-3.92935 5.5518839 5.5518839 0 0 0 -1.508233-3.79678l1.260564-1.26056zm-4.9739937.0556-2.7783233 2.91009h-2.0869168s-.6914066.70967-.6914066 2.38301c0 1.67335.6914066 2.37984.6914066 2.37984h1.1287926l3.7364475-3.73646z" fill="#808080" opacity=".5" stroke-width=".210028"/><path d="m7.9726562.41601562-3.9863281 4.17578128h-2.9941406s-.9921875 1.01333-.9921875 3.4140625c0 .0897626.0110015.1640812.01367188.25.06875025-2.211604.97851562-3.1640625.97851562-3.1640625h2.9941406l3.9863281-4.17578128zm5.2890628 1.43164058-.804688.8046876.25.25.554688-.5546876.404297.4003907a7.9720953 7.9720953 0 0 1 2.322265 5.3476562 7.9720953 7.9720953 0 0 0 -2.322265-5.8476562zm-2.416016 2.4140626-.804687.8066406.25.25.554687-.5566406.404297.4023437a4.5554831 4.5554831 0 0 1 1.322266 2.9667969 4.5554831 4.5554831 0 0 0 -1.322266-3.4667969zm.587891 3.8515624a3.4154734 3.4154734 0 0 1 -.988282 2.1874998l-.404296.402344.25.25.154296-.152344a3.4154734 3.4154734 0 0 0 .988282-2.6874998zm3.414062.0488282a6.8320857 6.8320857 0 0 1 -1.988281 4.5546876l-.402344.402344.25.25.152344-.152344a6.8320857 6.8320857 0 0 0 1.988281-5.0546876z" fill="#fafafa" opacity=".3" stroke-width=".379623" transform="matrix(.6969623 0 0 .6969623 .79375 285.06906)"/><path d="m6.3503908 295.94167-2.7783204-2.91036h-2.0868031s-.69151731-.70626-.69151731-2.37948c0-.0626.007668-.11436.009529-.17424.0479163 1.54141.68198851 2.20523.68198851 2.20523h2.0868031l2.7783204 2.91037zm3.6862772-.9978-.560837-.56084.1742405-.17424.3865965.3866.28178-.27906a5.5562499 5.5562499 0 0 0 1.618531-3.72712 5.5562499 5.5562499 0 0 1 -1.618531 4.0756zm-1.6838719-1.68251-.5608365-.5622.1742406-.17424.3865959.38796.2817798-.28042a3.175 3.175 0 0 0 .9215695-2.06775 3.175 3.175 0 0 1 -.9215695 2.41623zm.4097379-2.6844a2.3804562 2.3804562 0 0 0 -.6887953-1.5246l-.2817791-.28042.1742406-.17424.1075385.10618a2.3804562 2.3804562 0 0 1 .6887953 1.87308zm2.379472-.034a4.7617062 4.7617062 0 0 0 -1.3857564-3.17444l-.2804186-.28042.1742405-.17424.1061781.10618a4.7617062 4.7617062 0 0 1 1.3857564 3.52292z" fill="#000" opacity=".2" stroke-width=".264583"/></g></svg>

<?xml version="1.0" encoding="UTF-8" standalone="no"?>
<svg
   xmlns:dc="http://purl.org/dc/elements/1.1/"
   xmlns:cc="http://creativecommons.org/ns#"
   xmlns:rdf="http://www.w3.org/1999/02/22-rdf-syntax-ns#"
   xmlns:svg="http://www.w3.org/2000/svg"
   xmlns="http://www.w3.org/2000/svg"
   xmlns:sodipodi="http://sodipodi.sourceforge.net/DTD/sodipodi-0.dtd"
   xmlns:inkscape="http://www.inkscape.org/namespaces/inkscape"
   height="16"
   viewBox="0 0 4.2333333 4.2333333"
   width="16"
   version="1.1"
   id="svg12"
   sodipodi:docname="audio-volume-muted.svg"
   inkscape:version="0.92.4 (5da689c313, 2019-01-14)">
  <metadata
     id="metadata18">
    <rdf:RDF>
      <cc:Work
         rdf:about="">
        <dc:format>image/svg+xml</dc:format>
        <dc:type
           rdf:resource="http://purl.org/dc/dcmitype/StillImage" />
        <dc:title></dc:title>
      </cc:Work>
    </rdf:RDF>
  </metadata>
  <defs
     id="defs16" />
  <sodipodi:namedview
     pagecolor="#ffffff"
     bordercolor="#666666"
     borderopacity="1"
     objecttolerance="10"
     gridtolerance="10"
     guidetolerance="10"
     inkscape:pageopacity="0"
     inkscape:pageshadow="2"
     inkscape:window-width="1920"
     inkscape:window-height="1016"
     id="namedview14"
     showgrid="false"
     inkscape:zoom="54.679454"
     inkscape:cx="7.9999959"
     inkscape:cy="7.9922572"
     inkscape:window-x="0"
     inkscape:window-y="27"
     inkscape:window-maximized="1"
     inkscape:current-layer="g8" />
  <g
     transform="matrix(0.37962359,0,0,0.37962359,-0.30132622,-108.21894)"
     id="g10"
     style="stroke-width:0.26458299">
    <g
       id="g8"
       style="fill:#924d8b">
      <path
         id="path1107"
         d="m 11.324192,285.30359 -10.3194878,10.31949 0.37309,0.37468 2.5711388,-2.57035 2.4012653,2.51478 v -4.91605 l 1.8352812,-1.83607 c 0.3707085,0.43024 0.5850365,0.974 0.5850365,1.54554 0,0.63188 -0.250844,1.23755 -0.6985501,1.68446 l -0.2802141,0.28022 0.5612209,0.56122 0.281008,-0.28022 a 3.1752268,3.1752268 0 0 0 0.9303417,-2.24568 c 0,-0.78189 -0.2992654,-1.52649 -0.8176208,-2.10676 l 1.1287928,-1.12879 a 4.7580773,4.7580773 0 0 1 1.2764396,3.23555 4.7620464,4.7620464 0 0 1 -1.3955106,3.36812 l -0.281008,0.28021 0.5612206,0.56122 0.281008,-0.2802 a 5.5566468,5.5566468 0 0 0 1.627304,-3.92935 5.5518839,5.5518839 0 0 0 -1.508233,-3.79678 l 1.260564,-1.26056 z m -4.9739937,0.0556 -2.7783233,2.91009 H 1.4849582 c 0,0 -0.6914066,0.70967 -0.6914066,2.38301 0,1.67335 0.6914066,2.37984 0.6914066,2.37984 h 1.1287926 l 3.7364475,-3.73646 z"
         inkscape:connector-curvature="0"
         style="opacity:0.5;fill:#808080;stroke-width:0.21002775" />
      <path
         style="stroke-width:0.37962312;fill:#fafafa;fill-opacity:1;opacity:0.3"
         d="M 7.9726562 0.41601562 L 3.9863281 4.5917969 L 0.9921875 4.5917969 C 0.9921875 4.5917969 0 5.6051269 0 8.0058594 C 0 8.095622 0.011001495 8.1699406 0.013671875 8.2558594 C 0.082422134 6.0442554 0.9921875 5.0917969 0.9921875 5.0917969 L 3.9863281 5.0917969 L 7.9726562 0.91601562 L 7.9726562 0.41601562 z M 13.261719 1.8476562 L 12.457031 2.6523438 L 12.707031 2.9023438 L 13.261719 2.3476562 L 13.666016 2.7480469 A 7.9720953 7.9720953 0 0 1 15.988281 8.0957031 A 7.9720953 7.9720953 0 0 0 13.666016 2.2480469 L 13.261719 1.8476562 z M 10.845703 4.2617188 L 10.041016 5.0683594 L 10.291016 5.3183594 L 10.845703 4.7617188 L 11.25 5.1640625 A 4.5554831 4.5554831 0 0 1 12.572266 8.1308594 A 4.5554831 4.5554831 0 0 0 11.25 4.6640625 L 10.845703 4.2617188 z M 11.433594 8.1132812 A 3.4154734 3.4154734 0 0 1 10.445312 10.300781 L 10.041016 10.703125 L 10.291016 10.953125 L 10.445312 10.800781 A 3.4154734 3.4154734 0 0 0 11.433594 8.1132812 z M 14.847656 8.1621094 A 6.8320857 6.8320857 0 0 1 12.859375 12.716797 L 12.457031 13.119141 L 12.707031 13.369141 L 12.859375 13.216797 A 6.8320857 6.8320857 0 0 0 14.847656 8.1621094 z "
         transform="matrix(0.6969623,0,0,0.6969623,0.79374999,285.06906)"
         id="path855" />
      <path
         id="path860"
         d="M 6.3503908,295.94167 3.5720704,293.03131 H 1.4852673 c 0,0 -0.69151731,-0.70626 -0.69151731,-2.37948 0,-0.0626 0.007668,-0.11436 0.009529,-0.17424 0.0479163,1.54141 0.68198851,2.20523 0.68198851,2.20523 h 2.0868031 l 2.7783204,2.91037 z m 3.6862772,-0.9978 -0.560837,-0.56084 0.1742405,-0.17424 0.3865965,0.3866 0.28178,-0.27906 a 5.5562499,5.5562499 0 0 0 1.618531,-3.72712 5.5562499,5.5562499 0 0 1 -1.618531,4.0756 z m -1.6838719,-1.68251 -0.5608365,-0.5622 0.1742406,-0.17424 0.3865959,0.38796 0.2817798,-0.28042 a 3.175,3.175 0 0 0 0.9215695,-2.06775 3.175,3.175 0 0 1 -0.9215695,2.41623 z m 0.4097379,-2.6844 a 2.3804562,2.3804562 0 0 0 -0.6887953,-1.5246 l -0.2817791,-0.28042 0.1742406,-0.17424 0.1075385,0.10618 a 2.3804562,2.3804562 0 0 1 0.6887953,1.87308 z m 2.379472,-0.034 a 4.7617062,4.7617062 0 0 0 -1.3857564,-3.17444 l -0.2804186,-0.28042 0.1742405,-0.17424 0.1061781,0.10618 a 4.7617062,4.7617062 0 0 1 1.3857564,3.52292 z"
         style="opacity:0.2;fill:#000000;fill-opacity:1;stroke-width:0.26458299"
         inkscape:connector-curvature="0" />
    </g>
  </g>
</svg>
